build/images/icon/icon-time.svg

<?xml version="1.0" encoding="UTF-8"?>
<svg width="24px" height="24px" viewBox="0 0 24 24" version="1.1" xmlns="http://www.w3.org/2000/svg" xmlns:xlink="http://www.w3.org/1999/xlink">
    <!-- Generator: sketchtool 52.6 (67491) - http://www.bohemiancoding.com/sketch -->
    <title>2A40B027-F558-4815-87C1-FEB4658DE8C1</title>
    <desc>Created with sketchtool.</desc>
    <g id="Symbols" stroke="none" stroke-width="1" fill="none" fill-rule="evenodd">
        <g id="icon/time/M/normal">
            <g id="Group-2">
                <g id="Group">
                    <rect id="Rectangle" x="0" y="0" width="24" height="24"></rect>
                    <path d="M7.51446806,4.5 C7.6408139,6.68590298 8.59505617,8.91420028 10.3923944,11.1901183 L10.6251823,11.484891 L10.4069055,11.7905648 C8.58228076,14.3457606 7.62031718,16.9131406 7.51059703,19.5 L16.4894094,19.5 C16.3797206,16.9123808 15.4177662,14.3450291 13.5931374,11.7906248 L13.3748201,11.4849897 L13.6075537,11.1901841 C15.40488,8.91349572 16.3591344,6.68516486 16.4855219,4.5 L7.51446806,4.5 Z" id="Rectangle" stroke="#979797"></path>
                    <path d="M10.6476468,17.5 L13.3523532,17.5 C12.8073355,15.5117763 12.2764695,14.5 12,14.5 C11.7235305,14.5 11.1926645,15.5117763 10.6476468,17.5 Z" id="Rectangle" stroke="#979797" fill="#979797"></path>
                </g>
            </g>
        </g>
    </g>
</svg>

<svg width="24" height="24" xmlns="http://www.w3.org/2000/svg"><g fill="none" fill-rule="evenodd"><path d="M0 0h24v24H0z"/><path d="M7.514 4.5c.127 2.186 1.081 4.414 2.878 6.69l.233.295-.218.306C8.582 14.346 7.62 16.913 7.51 19.5h8.978c-.11-2.588-1.071-5.155-2.896-7.71l-.218-.305.233-.295c1.797-2.277 2.751-4.505 2.878-6.69H7.514z" stroke="#979797"/><path d="M10.648 17.5h2.704c-.545-1.988-1.076-3-1.352-3s-.807 1.012-1.352 3z" stroke="#979797" fill="#979797"/></g></svg>
